X: 102
T: Pan wugeng
L: 1/8
M: 2/4
K: Eb
F2F G [I:setbarnb 1]| 
F E C E | 
F2G E | 
F4 | 
B2c B | 
A2c G | 
F E F G | 
F EC2 | 
E4 | 
C E F G | 
G D E F | 
E4 | 
c d c B | 
c2z2 | 
c d c B | 
A2c G | 
F E F G | 
F EC2 | 
E4 | 
GE2G | 
F4 | 
E3F | 
B3G | 
F GB2 | 
B G F E | 
C4 | 
c B c e | 
eB2c | 
B4 | 
G> B c e | 
eB2c | 
B4 |]

@@@ Tune index: 8976
